packages/components/src/components/icon/wallet/ic-wallet-explore.svg

<svg width="14" height="14" viewBox="0 0 14 14" fill="none" xmlns="http://www.w3.org/2000/svg">
<path d="M3 10C3.55228 10 4 10.4477 4 11V13C4 13.5523 3.55228 14 3 14H1C0.447715 14 0 13.5523 0 13V11C0 10.4477 0.447715 10 1 10H3ZM8 10C8.55229 10 9 10.4477 9 11V13C9 13.5523 8.55229 14 8 14H6C5.44772 14 5 13.5523 5 13V11C5 10.4477 5.44772 10 6 10H8ZM13 10C13.5523 10 14 10.4477 14 11V13C14 13.5523 13.5523 14 13 14H11C10.4477 14 10 13.5523 10 13V11C10 10.4477 10.4477 10 11 10H13ZM3 11H1V13H3V11ZM8 11H6V13H8V11ZM13 11H11V13H13V11ZM3 5C3.55228 5 4 5.44772 4 6V8C4 8.55229 3.55228 9 3 9H1C0.447715 9 0 8.55229 0 8V6C0 5.44772 0.447715 5 1 5H3ZM8 5C8.55229 5 9 5.44772 9 6V8C9 8.55229 8.55229 9 8 9H6C5.44772 9 5 8.55229 5 8V6C5 5.44772 5.44772 5 6 5H8ZM13 5C13.5523 5 14 5.44772 14 6V8C14 8.55229 13.5523 9 13 9H11C10.4477 9 10 8.55229 10 8V6C10 5.44772 10.4477 5 11 5H13ZM3 6H1V8H3V6ZM8 6H6V8H8V6ZM13 6H11V8H13V6ZM3 0C3.55228 0 4 0.447715 4 1V3C4 3.55228 3.55228 4 3 4H1C0.447715 4 0 3.55228 0 3V1C0 0.447715 0.447715 0 1 0H3ZM8 0C8.55229 0 9 0.447715 9 1V3C9 3.55228 8.55229 4 8 4H6C5.44772 4 5 3.55228 5 3V1C5 0.447715 5.44772 0 6 0H8ZM13 0C13.5523 0 14 0.447715 14 1V3C14 3.55228 13.5523 4 13 4H11C10.4477 4 10 3.55228 10 3V1C10 0.447715 10.4477 0 11 0H13ZM3 1H1V3H3V1ZM8 1H6V3H8V1ZM13 1H11V3H13V1Z" fill="#333333"/>
</svg>

<svg width="14" height="14" fill="none" xmlns="http://www.w3.org/2000/svg"><path d="M3 10a1 1 0 011 1v2a1 1 0 01-1 1H1a1 1 0 01-1-1v-2a1 1 0 011-1h2zm5 0a1 1 0 011 1v2a1 1 0 01-1 1H6a1 1 0 01-1-1v-2a1 1 0 011-1h2zm5 0a1 1 0 011 1v2a1 1 0 01-1 1h-2a1 1 0 01-1-1v-2a1 1 0 011-1h2zM3 11H1v2h2v-2zm5 0H6v2h2v-2zm5 0h-2v2h2v-2zM3 5a1 1 0 011 1v2a1 1 0 01-1 1H1a1 1 0 01-1-1V6a1 1 0 011-1h2zm5 0a1 1 0 011 1v2a1 1 0 01-1 1H6a1 1 0 01-1-1V6a1 1 0 011-1h2zm5 0a1 1 0 011 1v2a1 1 0 01-1 1h-2a1 1 0 01-1-1V6a1 1 0 011-1h2zM3 6H1v2h2V6zm5 0H6v2h2V6zm5 0h-2v2h2V6zM3 0a1 1 0 011 1v2a1 1 0 01-1 1H1a1 1 0 01-1-1V1a1 1 0 011-1h2zm5 0a1 1 0 011 1v2a1 1 0 01-1 1H6a1 1 0 01-1-1V1a1 1 0 011-1h2zm5 0a1 1 0 011 1v2a1 1 0 01-1 1h-2a1 1 0 01-1-1V1a1 1 0 011-1h2zM3 1H1v2h2V1zm5 0H6v2h2V1zm5 0h-2v2h2V1z" fill="#333"/></svg>
